X:1
T:The Mist Will Roll Away
T:The Mist Will Roll Away
T:Harrison Millard
T:George Cooper, 1884
T:Public Domain Courtesy of the Cyber Hymnal™
T:Public Domain Courtesy of the Cyber Hymnal™
C:Harrison Millard
Z:Public Domain
Z:Courtesy of the Cyber Hymnal™
%%score ( 1 2 ) ( 3 4 )
L:1/8
Q:1/4=97
M:4/4
K:Eb
V:1 treble 
V:2 treble 
V:3 bass 
V:4 bass 
V:1
 E2 [EG]>[EA] [EB]2 [Ee]>[Ee] | [Bd]2 [Ac]2 [GB]2 z2 | [Ec]2 [EB]>[EG] [B,E]2 [EF]>[EG] | %3
w: 1.~Yon- der’s the land where the|loved ones are,|Soon will the mist roll a-|
w: 2.~Dark looms the path, but the|prom- ise heed,|Soon will the mist roll a-|
w: 3.~Bear thou the cross till the|crown is won,|Soon will the mist roll a-|
 [DF]6 z2 | E2 [EG]>[EA] [EB]2 [Ee]>[Ee] | [Bd]2 [Ac]2 [GB]2 z2 | %6
w: way!|Joy soon to rest in that|realm a- far,|
w: way!|Je- sus a- lone can re-|lieve thy need,|
w: way!|Work till the will of the|Lord be done,|
 [Ec]2 [EB]>[EG] [B,E]2 [DF]>[B,E] | [B,E]6 z2 | [DF]2 [Fd]>[Fd] [Fd][Fd][Fd][Fd] | %9
w: Soon will the mist roll a-|way!|There in the lov- ing smile of|
w: Soon will the mist roll a-|way!|Clear will the pur- pose of the|
w: Soon will the mist roll a-|way!|All will be re- con- ciled to|
 [Ge]2 [GB]>[_Gc] [Fd]2 z2 | [Fc]2 [Fc]>[Fc] [Fc][Fc][FB][Fc] | [Fd]6 z2 | %12
w: Christ to a- bide,|Vi- sions of glo- ry day by|day!|
w: Lord be to thee,|Has- ten the Mas- ter to o-|bey;|
w: thee by and by,|Faith guid- eth on to per- fect|day;|
 [DF]2 [Fd]>[Fd] [Fd][Fd][Fd][Fd] | [Ge]2 [GB]>[_Gc] [Fd]2 z2 | [Fd]2 [Fc][FB] [Fc]2 [EG][E=A] | %15
w: Faith fond- ly whis- pers while in|sha- dows we hide,|Soon will the mist roll a-|
w: Bliss- ful the vi- sion that be-|yond we shall see,|Soon will the mist roll a-|
w: Soon shall the glo- ry dawn up-|on ev- ery eye,|Soon will the mist roll a-|
 [DB]4 z4 ||"^Refrain" E2 [EG]>[EA] [EB]2 [Ee]>[Ee] | [Bd]2 [Ac]2 [GB]2 z2 | %18
w: way!|||
w: way!|Yon- der’s the land where the|loved ones are,|
w: way!|||
 [Ec]2 [EB]>[EG] [CE]2 [EF]>[EG] | [DF]6 z2 | E2 [EG]>[EA] [EB]2 [Ee]>[Ee] | [Bd]2 [Ac]2 [GB]2 z2 | %22
w: ||||
w: Soon will the mist roll a-|way!|Joy soon to rest in that|realm a- far,|
w: ||||
 [Ec]2 [EB]>[EG] [B,E]2 [DF]>[B,E] | !fermata![B,E]8 |] %24
w: ||
w: Soon will the mist roll a-|way!|
w: ||
V:2
 E2 x6 | x8 | x8 | x8 | E2 x6 | x8 | x8 | x8 | x8 | x8 | x8 | x8 | x8 | x8 | x8 | x8 || E2 x6 | %17
 x8 | x8 | x8 | E2 x6 | x8 | x8 | x8 |] %24
V:3
 [E,G,]2 E,>F, [E,G,]2 [E,G,]>[E,G,] | (A,B,) (CD) [E,E]2 z2 | %2
 [E,A,]2 [E,G,]>[E,B,] [E,G,]2 [C,=A,]>[C,A,] | [B,,B,]6 z2 | [E,G,]2 E,>F, [E,G,]2 [E,G,]>[E,G,] | %5
 (A,B,) (CD) [E,E]2 z2 | [E,A,]2 [E,G,]>[E,B,] [B,,G,]2 [B,,A,]>[E,G,] | [E,G,]6 z2 | %8
 [B,,B,]2 [B,,B,]>[B,,B,] [B,,B,][B,,B,][B,,B,][B,,B,] | [B,,B,]2 [B,,B,]>[B,,B,] [B,,B,]2 z2 | %10
 [F,=A,]2 [F,A,]>[F,A,] [F,A,][F,A,][F,G,][F,A,] | [B,,B,]6 z2 | %12
 [B,,B,]2 [B,,B,]>[B,,B,] [B,,B,][B,,B,][B,,B,][B,,B,] | [E,B,]2 [E,B,]>[E,B,] [B,,B,]2 z2 | %14
 [F,F]2 [F,E][F,D] [F,E]2 [F,B,][F,C] | (B,2 A,2 G,2 F,2) || [E,G,]2 E,>F, [E,G,]2 [E,G,]>[E,G,] | %17
 (A,B,) (CD) [E,E]2 z2 | [E,A,]2 [E,G,]>[E,B,] [E,G,]2 [C,=A,]>[C,A,] | [B,,B,]6 z2 | %20
 [E,G,]2 E,>F, [E,G,]2 [E,G,]>[E,G,] | (A,B,) (CD) [E,E]2 z2 | %22
 [E,A,]2 [F,G,]>[F,B,] [B,,G,]2 [B,,A,]>[E,G,] | !fermata![E,G,]8 |] %24
V:4
 x2 E,>F, x4 | E,2 E,2 x4 | x8 | x8 | x2 E,>F, x4 | E,2 E,2 x4 | x8 | x8 | x8 | x8 | x8 | x8 | x8 | %13
 x8 | x8 | B,,4 x4 || x2 E,>F, x4 | E,2 E,2 x4 | x8 | x8 | x2 E,>F, x4 | E,2 E,2 x4 | x8 | x8 |] %24

